epam-assets/icon-sources/18/table-row_plus_after.svg

<svg xmlns="http://www.w3.org/2000/svg" width="18" height="18" fill="none" viewBox="0 0 18 18">
  <path fill="#6C6F80" fill-rule="evenodd" d="M16.5 7.5A1.5 1.5 0 0 1 15 9H3a1.5 1.5 0 0 1-1.5-1.5V2.25H3v1.5h3v-1.5h1.5v1.5h3v-1.5H12v1.5h3v-1.5h1.5V7.5ZM3 7.5h3V5.25H3V7.5Zm4.5 0h3V5.25h-3V7.5Zm7.5 0V5.25h-3V7.5h3Zm-6.75 3h1.5v2.25H12v1.5H9.75v2.25h-1.5v-2.25H6v-1.5h2.25V10.5Z" clip-rule="evenodd"/>
</svg>

<svg width="18" height="18" viewBox="0 0 18 18" fill="none" xmlns="http://www.w3.org/2000/svg">
<g id="18/table-row_plus_after">
<path id="icon" fill-rule="evenodd" clip-rule="evenodd" d="M16.5 7.5C16.5 8.32843 15.8284 9 15 9H3C2.17157 9 1.5 8.32843 1.5 7.5V2.25H3V3.75H6V2.25H7.5V3.75H10.5V2.25H12V3.75H15V2.25H16.5V7.5ZM3 7.5H6V5.25H3V7.5ZM7.5 7.5H10.5V5.25H7.5V7.5ZM15 7.5V5.25H12V7.5H15ZM8.25 10.5H9.75V12.75H12V14.25H9.75V16.5H8.25V14.25H6V12.75H8.25V10.5Z" fill="#6C6F80"/>
</g>
</svg>
